X: 308
T: Beyâtî Aranağme (Curcuna)
C: ?
O: Turkey
F: http://compmusic.upf.edu/node/140
N: beyati--aranagme--curcuna--1--
N: makam= beyati
N: form= aranagme
N: usul= curcuna = 10/8
M: 10/8
L: 1/16
K: C _2/4B   
Q: 1/4=192
%%MIDI tuningsystem comma53
e2f2 g2a2 g2f2 e2f4z2  | e2f2 g2a4g2 f2e4d2  | \
w:  ARANAĞME  |   | 
d2c2 d2e2 f2e2 d2c2 B2A2  | 
w:   | 
A2G2 A2B2 c2d2 e2^3/4f2 g2a2  | a4 c'2b2 a2g2 f2e2 d2c2  | \
w:   |   | 
c2B2 d2c2 B2B2 A2A4z2  | 
w:   | 
e2f2 g2a2 g2f2 e2f4z2  | e2f2 g2a4g2 f2e4d2  | \
w:  ARANAĞME  |   | 
d2c2 d2e2 f2e2 d2c2 B2A2  | 
w:   | 
A2G2 A2B2 c2d2 e2^3/4f2 g2a2  | a4 c'2b2 a2g2 f2e2 d2c2  | \
w:   |   | 
c2B2 d2c2 B2B2 A2A4z2  | 
w:   | 
|


